!!!!SEGMENT: Ser1001c-Missa_Philiomena-Credo.krn
!!!id: Ser1001c
!!!AGN: Mass; Credo
!!!voices: 2-4
!!!COM: Claudin de Sermisy
!!!OPR: Missa Philomena
!!!OTL: Credo
**kern	**kern	**kern	**kern
*part4	*part3	*part2	*part1
*staff4	*staff3	*staff2	*staff1
*I"Bassus	*I"Tenor	*I"Altus	*I"Superius
*I'B	*I'T	*I'A	*I'S
*clefF4	*clefGv2	*clefG2	*clefG2
*k[]	*k[]	*k[]	*k[]
*C:	*C:	*C:	*C:
*M2/1	*M2/1	*M2/1	*M2/1
*met(C|)	*met(C|)	*met(C|)	*met(C|)
!!section: Patrem
!!!OMD: Patrem
=1	=1	=1	=1
0r	0r	1g	1r
.	.	2g	1dd
.	.	2g	.
=2	=2	=2	=2
0r	0r	2f	2dd
.	.	2d	2dd
.	.	2.f	2cc
.	.	.	2a
.	.	4g	.
=3	=3	=3	=3
0r	0r	1a	2.cc
.	.	.	4dd
.	.	2r	1ee
.	.	2a	.
=4	=4	=4	=4
0r	0r	2a	2r
.	.	2a	2ee
.	.	2g	2ee
.	.	[2a	2ee
=5	=5	=5	=5
0r	0r	2a]	1ff
.	.	2d	.
.	.	1a	2ee
.	.	.	[2ff
=6	=6	=6	=6
0r	0r	1b	4ff]
.	.	.	4ee
.	.	.	2dd
.	.	2a	2cc
.	.	[2g	[2b
=7	=7	=7	=7
0r	0r	4g]	4b]
.	.	4f	4a
.	.	4e	1dd
.	.	4d	.
.	.	1e	.
.	.	.	2cc#i
=8	=8	=8	=8
1G	1r	1d	4dd
.	.	.	4cc
.	.	.	4b
.	.	.	4a
2G	1d	1r	1b
2G	.	.	.
=9	=9	=9	=9
2F	2d	0r	0a
2D	2d	.	.
2.F	2c	.	.
.	2A	.	.
4G	.	.	.
=10	=10	=10	=10
1A	2.c	0r	0r
.	4d	.	.
2r	1e	.	.
[2A	.	.	.
=11	=11	=11	=11
2A]	2r	0r	0r
2A	1e	.	.
2G	.	.	.
[2A	2e	.	.
=12	=12	=12	=12
2A]	1.f	0r	0r
4D	.	.	.
4E	.	.	.
4F	.	.	.
4G	.	.	.
4A	2f	.	.
4B	.	.	.
=13	=13	=13	=13
2c	2e	1.g	0r
1d	2d	.	.
.	1e	.	.
2c	.	2g	.
=14	=14	=14	=14
2d	0d	2f	1r
2.f	.	2d	.
.	.	1f	2r
4e	.	.	.
4d	.	.	[2dd
4c	.	.	.
=15	=15	=15	=15
1B	0r	1g	2dd]
.	.	.	2dd
1A	.	2a	2cc
.	.	[2cc	2a
=16	=16	=16	=16
0r	2r	4cc]	1cc
.	.	4b	.
.	2A	1a	.
.	1e	.	1b
.	.	2g#i	.
=17	=17	=17	=17
2r	1f	1a	2.a
1A	.	.	.
.	.	.	4b
.	2e	2r	1cc
2A	[2f	[2a	.
=18	=18	=18	=18
2D	4f]	2a]	2r
.	4e	.	.
2D	4d	2a	1dd
.	4c	.	.
2.G	4B	1d	.
.	4A	.	.
.	[2d	.	2dd
4F	.	.	.
=19	=19	=19	=19
1E	2d]	1e	2.g
.	2c#i	.	.
.	.	.	4a
1D	2d	1f	2b
.	[2f	.	2a
=20	=20	=20	=20
2r	2f]	1a	1r
2d	2f	.	.
2d	1f	2a	2r
2d	.	2a	2dd
=21	=21	=21	=21
1G	1g	1b	2dd
.	.	.	2dd
1c	[1e	1g	1ee
=22	=22	=22	=22
1A	2e]	1a	1cc
.	2f	.	.
2B	2d	2f	2dd
2G	2g	[2b-i	[2ee
=23	=23	=23	=23
1B	2f	2b-]	2ee]
.	4e	2g	1dd
.	4d	.	.
1A	1e	1a	.
.	.	.	2cc#i
=24	=24	=24	=24
0D	0d	2r	0dd
.	.	2f	.
.	.	2f	.
.	.	2f	.
=25	=25	=25	=25
2r	1r	1g	2r
1G	.	.	2dd
.	2r	1b-i	2dd
2G	[2d	.	2dd
=26	=26	=26	=26
2F	2d]	1a	1ff
2D	2d	.	.
2.E	2B	2r	1ee
.	2G	2g	.
4F	.	.	.
=27	=27	=27	=27
1G	2.B	2g	0dd
.	.	2g	.
.	4c	.	.
[1D	2d	2f	.
.	[2f	2d	.
=28	=28	=28	=28
1D]	4f]	1.f	2r
.	4e	.	.
.	4d	.	2dd
.	4c	.	.
1r	1B	.	2dd
.	.	2g	2dd
=29	=29	=29	=29
2r	1A	2a	2cc
2A	.	2.cc	2a
2A	2r	.	1cc
.	.	4b	.
2A	2e	[2a	.
=30	=30	=30	=30
2E	2e	2a]	1b
2E	2e	2g#i	.
2F	2c	1a	[1a
4D	[2d	.	.
4E	.	.	.
=31	=31	=31	=31
4F	2d]	0r	1a]
4G	.	.	.
1A	2c	.	.
.	2B	.	1r
[2G	2G	.	.
=32	=32	=32	=32
2G]	1A	2r	1r
2F#i	.	2d	.
1G	1B	2d	2r
.	.	2d	2dd
=33	=33	=33	=33
1D	0A	2.f	2dd
.	.	.	2dd
.	.	8eL	.
.	.	8dJ	.
2r	.	2c	2ee
2D	.	2d	[2ff
=34	=34	=34	=34
2D	2r	2A	4ff]
.	.	.	4ee
2D	2A	1f	2dd
2.F	2A	.	1cc
.	2A	2f	.
4G	.	.	.
=35	=35	=35	=35
1A	2.c	2e	2r
.	.	1a	2cc
.	4d	.	.
2r	1e	.	2cc
2E	.	2g	2b
=36	=36	=36	=36
2F	2r	0a	2a
2D	2f	.	1dd
1A	2f	.	.
.	2e	.	2cc#i
=37	=37	=37	=37
1B	2d	2r	1dd
.	1g	1d	.
1A	.	.	1r
.	2f	2c	.
=38	=38	=38	=38
1r	2g	2.e	2r
.	1c	.	1ee
.	.	4f	.
2r	.	1g	.
2G	2B	.	2dd
=39	=39	=39	=39
2F	2c	0a	1.ff
2D	2d	.	.
2.F	2A	.	.
.	[2d	.	2ff
4G	.	.	.
=40	=40	=40	=40
1A	2d]	1a	1ee
.	2c	.	.
2r	2.d	2.f	2dd
[2D	.	.	[2ff
.	4c	4g	.
=41	=41	=41	=41
2D]	2A	4a	4ff]
.	.	4b-i	4ee
2D	2.f	1a	2dd
2.F	.	.	2cc
.	4e	.	.
.	2d	[2a	2ff
4G	.	.	.
=42	=42	=42	=42
2A	2c	2a]	2ee
2B-i	2d	2g	1dd
1A	1e	1a	.
.	.	.	2cc#i
=43	=43	=43	=43
2.D	1d	0f	1dd
4E	.	.	.
2F	2r	.	2r
2D	[2d	.	[2ff
=44	=44	=44	=44
1A	2d]	2r	2ff]
.	2c	1a	2ee
1r	2A	.	2cc
.	[2c	2g	[2ee
=45	=45	=45	=45
1r	2c]	2e	2ee]
.	2B	2g	2.dd
2r	1d	1f	.
.	.	.	4cc
[2d	.	.	[2a
=46	=46	=46	=46
2d]	1A	2e	4a]
.	.	.	4b
2c	.	2a	2.cc
2A	1r	2a	.
.	.	.	4dd
2c	.	2a	4ee
.	.	.	4cc
=47	=47	=47	=47
1B	2r	2g	1dd
.	2d	2g	.
1A	2e	[1a	2cc
.	2e	.	2cc
=48	=48	=48	=48
2r	2.f	1a]	2dd
2d	.	.	2dd
.	4g	.	.
2d	2a	2r	2ff
2c	4A	[2cc	[2ee
.	4B	.	.
=49	=49	=49	=49
2A	4c	4cc]	2ee]
.	4d	4b	.
2c	1e	1a	2cc
2B	.	.	1dd
2B	2d	2g#i	.
=50	=50	=50	=50
0A	1e	[0a	[0cc
.	2r	.	.
.	2c	.	.
=51	=51	=51	=51
2r	1f	0a]	0cc]
1F	.	.	.
.	2f	.	.
2F	2f	.	.
=52	=52	=52	=52
2G	1e	2r	2r
2.A	.	1a	2cc
.	2c	.	2cc
4G	.	.	.
4F	[2f	2a	2cc
4E	.	.	.
=53	=53	=53	=53
2D	4f]	1a	1dd
.	4e	.	.
2F	1d	.	.
1E	.	1g	1ee
.	2c#i	.	.
=54	=54	=54	=54
1D	2.d	2f	1ff
.	.	2.a	.
.	4B	.	.
1r	2c	.	2ee
.	.	4g	.
.	[2d	4f	[2ff
.	.	4e	.
=55	=55	=55	=55
0r	2d]	2f	4ff]
.	.	.	4ee
.	2G	2g	1dd
.	1A	1e	.
.	.	.	2cc#i
=56	=56	=56	=56
2r	0r	2d	1.dd
1d	.	1f	.
2d	.	2f	2cc
=57	=57	=57	=57
1e	0r	1g	1b
2c	.	2e	1a
[2d	.	[2f	.
=58	=58	=58	=58
4d]	2r	4f]	2r
4c	.	4e	.
4B	1d	1a	1dd
4A	.	.	.
1B	.	.	.
.	2d	2g#i	2dd
=59	=59	=59	=59
1A	1e	1a	2.cc
.	.	.	4a
1r	2c	1r	2cc
.	[2d	.	[2b
=60	=60	=60	=60
0r	4d]	1r	4b]
.	4c	.	4a
.	4B	.	1a
.	4A	.	.
.	1B	1d	.
.	.	.	2g#i
=61	=61	=61	=61
1D	2.A	2d	0a
.	.	2d	.
.	4B	.	.
1A	1c	1e	.
=62	=62	=62	=62
2A	1r	2c	0r
2.B-i	.	2.d	.
.	2r	.	.
4A	.	4c	.
4G	2d	4B	.
4F	.	4A	.
=63	=63	=63	=63
1G	2d	1B	2r
.	2d	.	2g
2.c	1e	4A	2a
.	.	4B	.
.	.	4c	2a
4B	.	4d	.
=64	=64	=64	=64
2A	2c	4e	2cc
.	.	4f	.
2G	2.d	4g	1b
.	.	4e	.
2d	.	2f	.
.	4c	.	.
[2e	4B	2c	[2a
.	4A	.	.
=65	=65	=65	=65
2e]	1B	1d	2a]
1d	.	.	2g#i
.	1A	1e	1a
2c	.	.	.
=66	=66	=66	=66
2d	0r	0f	[0a
2d	.	.	.
2d	.	.	.
2d	.	.	.
=67	=67	=67	=67
2c	0r	2r	0a_
2d	.	2d	.
4D	.	2d	.
4E	.	.	.
4F	.	2d	.
4G	.	.	.
=68	=68	=68	=68
2A	0r	2c	0a]
4D	.	2d	.
4E	.	.	.
4F	.	2A	.
4G	.	.	.
4A	.	[2cc	.
4B	.	.	.
=69	=69	=69	=69
2c	2r	4cc]	0r
.	.	4b	.
2d	2d	1a	.
1B	2d	.	.
.	2d	2g#i	.
=70	=70	=70	=70
2A	2c	[0a	2r
1d	2d	.	2dd
.	1A	.	1ee
2c	.	.	.
=71	=71	=71	=71
2d	2r	1a]	1.ff
2D	2d	.	.
2D	2d	2r	.
2D	2d	2a	2ff
=72	=72	=72	=72
1A	1c	2a	1ee
.	.	2a	.
1B	1d	2f	1dd
.	.	2g	.
=73	=73	=73	=73
00A	00e	00a	00cc
=74||	=74||	=74||	=74||
*M2/1	*M2/1	*M2/1	*M2/1
*met(C|)	*met(C|)	*met(C|)	*met(C|)
!!section: Et incarnatus est
!!!OMD: Et incarnatus est 
0r	0r	1A	0r
.	.	2A	.
.	.	2A	.
=75	=75	=75	=75
0r	1A	2.c	1r
.	.	4d	.
.	2A	2e	1a
.	2A	2f	.
=76	=76	=76	=76
1A	2.c	2.e	2a
.	.	.	2a
.	4d	4d	.
2A	2e	4c	1cc
.	.	4A	.
2A	[2f	[2a	.
=77	=77	=77	=77
2B	2f]	2a]	1dd
2B	4e	2g	.
.	4d	.	.
[1A	2f	[1a	1cc
.	[2e	.	.
=78	=78	=78	=78
1A]	4e]	1a]	2r
.	4d	.	.
.	4c	.	2a
.	4B	.	.
2r	1A	2r	2.a
2A	.	[2cc	.
.	.	.	4b
=79	=79	=79	=79
2.A	0r	4cc]	2.cc
.	.	4b	.
.	.	2a	.
4B	.	.	4dd
2c	.	2g	2ee
[2d	.	2f	[2ff
=80	=80	=80	=80
2d]	1r	1b-i	2ff]
4c	.	.	4ee
4B	.	.	4dd
2d	2r	[1a	2ff
2c	2e	.	2ee
=81	=81	=81	=81
1A	2.e	1a]	2cc
.	.	.	2.ee
.	4f	.	.
1r	2g	[1e	.
.	.	.	4dd
.	[2a	.	2cc
=82	=82	=82	=82
0r	2a]	1e]	1b
.	2g#i	.	.
.	2a	1f	1a
.	[2A	.	.
=83	=83	=83	=83
1r	2A]	1.e	2r
.	2A	.	1cc
1A	2.c	.	.
.	.	2e	2cc
.	4d	.	.
=84	=84	=84	=84
2A	1e	2.c	2a
2.c	.	.	2g
.	.	4d	.
.	4A	2e	1cc
4B	4B	.	.
2A	4c	2f	.
.	4d	.	.
=85	=85	=85	=85
2G	2e	2g	2b
2F	1f	2c	1a
1B-i	.	1d	.
.	4e	.	2g
.	4d	.	.
=86	=86	=86	=86
0A	2.c	1e	[0a
.	4d	.	.
.	1e	2r	.
.	.	2c	.
=87	=87	=87	=87
1F	2r	2A	1a]
.	1A	2c	.
2D	.	2d	2r
[2F	2A	2c	[2a
=88	=88	=88	=88
4F]	2c	1f	2a]
4E	.	.	.
2D	2d	.	2a
2C	2.e	1g	2.cc
[2c	.	.	.
.	4f	.	4dd
=89	=89	=89	=89
2c]	2g	2e	2ee
2A	2c	2a	2.ff
1B	1d	2f	.
.	.	.	4ee
.	.	2g	2dd
=90	=90	=90	=90
2A	0e	2a	2cc
2G	.	2b-i	1dd
1A	.	1a	.
.	.	.	2cc#i
=91	=91	=91	=91
00D	00d	00f	00dd
=92||	=92||	=92||	=92||
*	*	*M2/1	*M2/1
*	*	*met(C|)	*met(C|)
!!section: Crucifixus etiam
!!!OMD: Crucifixus etiam
0r	0r	0r	1.dd
.	.	.	2dd
=93	=93	=93	=93
0r	0r	0r	2cc
.	.	.	2a
.	.	.	[1cc
=94	=94	=94	=94
0r	0r	1.a	2cc]
.	.	.	2dd
.	.	.	2ee
.	.	2a	2cc
=95	=95	=95	=95
0r	0r	2g	2dd
.	.	2e	2.ee
.	.	2f	.
.	.	.	4dd
.	.	2g	[2dd
=96	=96	=96	=96
0r	0r	1a	2dd]
.	.	.	2cc
.	.	2f	1dd
.	.	[2g	.
=97	=97	=97	=97
0r	0r	4g]	2r
.	.	4f	.
.	.	4e	1dd
.	.	4d	.
.	.	1e	.
.	.	.	2cc
=98	=98	=98	=98
0r	0r	2d	2ff
.	.	1a	2ee
.	.	.	4cc
.	.	.	4dd
.	.	2g	4ee
.	.	.	4cc
=99	=99	=99	=99
0r	0r	2b-i	2dd
.	.	2a	2ee
.	.	4f	4a
.	.	4g	4b
.	.	4a	4cc
.	.	4f	4dd
=100	=100	=100	=100
0r	0r	2g	2ee
.	.	2a	2cc
.	.	4d	1ff
.	.	4e	.
.	.	4f	.
.	.	4g	.
=101	=101	=101	=101
0r	0r	2a	2ee
.	.	2f	2ff
.	.	2g	2dd
.	.	[2a	[2ff
=102	=102	=102	=102
0r	0r	4a]	2ff]
.	.	4g	.
.	.	2e	1ee
.	.	1f	.
.	.	.	2dd
=103	=103	=103	=103
0r	0r	0e	1ee
.	.	.	2r
.	.	.	2ee
=104	=104	=104	=104
0r	0r	2r	2ee
.	.	2a	2ee
.	.	2a	2a
.	.	2a	2ee
=105	=105	=105	=105
0r	0r	2d	2ff
.	.	2.g	2dd
.	.	.	2.gg
.	.	4f	.
.	.	4e	.
.	.	4d	4ff
=106	=106	=106	=106
0r	0r	2c	4ee
.	.	.	4dd
.	.	2.f	4cc
.	.	.	4b
.	.	.	4a
.	.	4g	4b
.	.	4a	4cc
.	.	4f	4dd
=107	=107	=107	=107
0r	0r	2g	2ee
.	.	2a	2.ff
.	.	2d	.
.	.	.	4ee
.	.	2f	[2dd
=108	=108	=108	=108
0r	0r	1e	2dd]
.	.	.	2cc#i
.	.	1d	[1dd
=109	=109	=109	=109
0r	0r	2r	1dd]
.	.	2g	.
.	.	2g	2r
.	.	2g	2dd
=110	=110	=110	=110
0r	0r	2.d	2dd
.	.	.	2dd
.	.	4e	.
.	.	4f	4a
.	.	4g	4b
.	.	4a	4cc
.	.	4b	4dd
=111	=111	=111	=111
0r	0r	2.cc	4ee
.	.	.	4ff
.	.	.	2.gg
.	.	4b	.
.	.	2g	.
.	.	.	4ff
.	.	[2a	4ee
.	.	.	4dd
=112	=112	=112	=112
0r	0r	2a]	2cc
.	.	4g	1dd
.	.	4f	.
.	.	1e	.
.	.	.	2cc#i
=113	=113	=113	=113
00r	00r	00d	00dd
=114||	=114||	=114||	=114||
*M2/1	*M2/1	*	*
*met(C|)	*met(C|)	*	*
!!section: Et resurrexit
!!!OMD: Et resurrexit
0G	0r	0r	0r
=115	=115	=115	=115
1G	0d	0r	0r
1G	.	.	.
=116	=116	=116	=116
1F	1d	0r	0r
1D	1d	.	.
=117	=117	=117	=117
1.F	1c	0r	0r
.	1A	.	.
2G	.	.	.
=118	=118	=118	=118
1A	1.c	0r	0r
1F	.	.	.
.	2d	.	.
=119	=119	=119	=119
2G	2e	0r	0r
2A	2c	.	.
1B-i	2.d	.	.
.	4e	.	.
=120	=120	=120	=120
1A	1f	0r	0r
2r	[1e	.	.
2A	.	.	.
=121	=121	=121	=121
2A	1e]	0r	0r
2G	.	.	.
1B	2r	.	.
.	2d	.	.
=122	=122	=122	=122
1A	2d	0r	0r
.	2c	.	.
4D	1f	.	.
4E	.	.	.
4F	.	.	.
4G	.	.	.
=123	=123	=123	=123
4A	1e	0r	0r
4B	.	.	.
1c	.	.	.
.	4A	.	.
.	4B	.	.
2A	4c	.	.
.	4d	.	.
=124	=124	=124	=124
2.c	4e	0r	0r
.	4f	.	.
.	2.g	.	.
4B	.	.	.
2G	.	.	.
.	4f	.	.
2B	4d	.	.
.	4e	.	.
=125	=125	=125	=125
2A	2f	0r	0r
2.G	1e	.	.
4F	.	.	.
2D	[2d	.	.
=126	=126	=126	=126
1E	2d]	0r	0r
.	2c#i	.	.
[1D	1d	.	.
=127	=127	=127	=127
1D]	2r	0r	0r
.	2d	.	.
2r	1d	.	.
2D	.	.	.
=128	=128	=128	=128
1D	1.a	0r	0r
[1d	.	.	.
.	2g	.	.
=129	=129	=129	=129
2d]	2f	0r	0r
2c	2e	.	.
2B	4d	.	.
.	4e	.	.
2A	4f	.	.
.	4d	.	.
=130	=130	=130	=130
2G	2e	0r	0r
2.A	1f	.	.
4G	.	.	.
4F	[2e	.	.
4E	.	.	.
=131	=131	=131	=131
1F	2e]	0r	0r
.	2d	.	.
[1E	1e	.	.
=132	=132	=132	=132
1E]	2r	0r	0r
.	2e	.	.
2r	2e	.	.
2E	2e	.	.
=133	=133	=133	=133
2E	1g	0r	0r
2E	.	.	.
1A	2f	.	.
.	[2e	.	.
=134	=134	=134	=134
2G	2e]	0r	0r
2F	1f	.	.
1B-i	.	.	.
.	4e	.	.
.	4d	.	.
=135	=135	=135	=135
1A	2f	0r	0r
.	2.e	.	.
2G	.	.	.
.	4d	.	.
[2A	4c	.	.
.	4B	.	.
=136	=136	=136	=136
4A]	2A	0r	0r
4G	.	.	.
4F	1f	.	.
4E	.	.	.
2D	.	.	.
[2d	4e	.	.
.	4d	.	.
=137	=137	=137	=137
2d]	1e	0r	0r
2c#i	.	.	.
1d	1d	.	.
=138	=138	=138	=138
1G	2r	0r	0r
.	2d	.	.
2r	2d	.	.
2G	2d	.	.
=139	=139	=139	=139
2G	1e	0r	0r
2G	.	.	.
2A	2c	.	.
2F	[2d	.	.
=140	=140	=140	=140
2G	2d]	0r	0r
1A	2c	.	.
.	1B	.	.
2G#i	.	.	.
=141	=141	=141	=141
00A	00A	00r	00r
=142||	=142||	=142||	=142||
*M2/1	*M2/1	*M2/1	*
*met(C|)	*met(C|)	*met(C|)	*
!!section: Et iterum
!!!OMD: Et iterum
1r	0r	1a	0r
1d	.	2a	.
.	.	2a	.
=143	=143	=143	=143
2d	0r	1b	0r
2d	.	.	.
1e	.	2g	.
.	.	[2cc	.
=144	=144	=144	=144
1c	0r	4cc]	0r
.	.	4b	.
.	.	4a	.
.	.	4g	.
2d	.	2f	.
[2c	.	[2e	.
=145	=145	=145	=145
2c]	1g	2e]	0r
4B	.	4d	.
4A	.	4c	.
2B	2g	2d	.
[2c	2g	[2e	.
=146	=146	=146	=146
2c]	1a	2e]	0r
2A	.	2c	.
2B	2f	1d	.
4G	[2g	.	.
4A	.	.	.
=147	=147	=147	=147
4B	2g]	1r	0r
4c	.	.	.
1d	2f	.	.
.	1e	2r	.
2c	.	2a	.
=148	=148	=148	=148
1B	1d	2a	0r
.	.	2g	.
2A	2r	[1a	.
2d	2f	.	.
=149	=149	=149	=149
2d	2f	2a]	0r
2c	2e	2cc	.
2d	2f	1b	.
2e	2g	.	.
=150	=150	=150	=150
2c	2e	1a	0r
2d	1f	.	.
1A	.	2.cc	.
.	[2e	.	.
.	.	8bL	.
.	.	8aJ	.
=151	=151	=151	=151
0B	2e]	2g	0r
.	4d	1f	.
.	4c	.	.
.	1d	.	.
.	.	4e	.
.	.	4d	.
=152	=152	=152	=152
0A	1e	2.c	0r
.	.	4d	.
.	2r	1e	.
.	[2c	.	.
=153	=153	=153	=153
1F	2c]	1A	0r
.	2c	.	.
2F	1d	1r	.
[2G	.	.	.
=154	=154	=154	=154
2G]	2.e	1r	0r
2.A	.	.	.
.	4d	.	.
.	4c	2r	.
4G	4B	.	.
4F	[2A	[2f	.
4E	.	.	.
=155	=155	=155	=155
2D	2A]	2f]	0r
2F	1d	2f	.
1E	.	1g	.
.	2c	.	.
=156	=156	=156	=156
2D	2.f	1a	0r
1d	.	.	.
.	4e	.	.
.	2d	2f	.
2c	[2e	2g	.
=157	=157	=157	=157
1B	2e]	1d	0r
.	1d	.	.
1A	.	1e	.
.	2c#i	.	.
=158	=158	=158	=158
0D	0d	1d	0r
.	.	[1a	.
=159	=159	=159	=159
0d	1r	2a]	0r
.	.	2g	.
.	[1a	1f	.
=160	=160	=160	=160
1c	2a]	1e	0r
.	2g	.	.
1d	1f	2r	.
.	.	2a	.
=161	=161	=161	=161
1A	1e	1cc	0r
[1d	1r	2b	.
.	.	2a	.
=162	=162	=162	=162
1d]	2r	4a	0r
.	.	4g	.
.	2d	4f	.
.	.	4e	.
1d	[1a	1f	.
=163	=163	=163	=163
1c	2a]	1e	0r
.	2g	.	.
1d	1f	2.a	.
.	.	4g	.
=164	=164	=164	=164
0A	1e	4a	0r
.	.	4b	.
.	.	2.cc	.
.	1c	.	.
.	.	4b	.
.	.	[2a	.
=165	=165	=165	=165
0D	1.d	4a]	0r
.	.	4g	.
.	.	1f	.
.	4c	4e	.
.	4B	4d	.
=166	=166	=166	=166
00F	00A	00c	00r
=167||	=167||	=167||	=167||
*M2/1	*M2/1	*M2/1	*M2/1
*met(C|)	*met(C|)	*met(C|)	*met(C|)
!!section: Et in spiritum
!!!OMD: Et in spiritum
1r	0r	0r	1.a
[1A	.	.	.
.	.	.	2a
=168	=168	=168	=168
2A]	0r	1.A	2.cc
2A	.	.	.
.	.	.	4dd
2.c	.	.	1ee
.	.	2A	.
4d	.	.	.
=169	=169	=169	=169
1e	2r	2.c	1r
.	1A	.	.
.	.	4d	.
1r	.	2e	2r
.	2A	2f	[2cc
=170	=170	=170	=170
0r	2.c	2.e	2cc]
.	.	.	2cc
.	4d	4f	.
.	2e	2g	2b
.	2f	[2a	2a
=171	=171	=171	=171
1r	1e	2a]	1b
.	.	2g	.
2r	2.A	2.a	1a
[2c	.	.	.
.	4B	4g	.
=172	=172	=172	=172
4c]	4c	1e	1a
4B	4d	.	.
2A	1e	.	.
2G	.	1r	2b
2F	2f	.	[2a
=173	=173	=173	=173
1.B-i	1d	1r	2a]
.	.	.	2g
.	2e	2r	1a
2F	2f	[2cc	.
=174	=174	=174	=174
2.A	1e	4cc]	2.cc
.	.	4b	.
.	.	2a	.
4B	.	.	4dd
2c	1r	2g	2ee
2d	.	2f	2ff
=175	=175	=175	=175
2B	2r	1b-i	0dd
2G	2d	.	.
1d	2f	2a	.
.	2f	2a	.
=176	=176	=176	=176
1r	2.e	2g	1ee
.	.	2g	.
.	4d	.	.
2r	2c	2e	1a
2D	2d	[2f	.
=177	=177	=177	=177
2F	4A	4f]	0r
.	4B	4g	.
2F	4c	1a	.
.	4A	.	.
2.E	2B	.	.
.	[2c	2g	.
4D	.	.	.
=178	=178	=178	=178
2C	2c]	[0a	2r
2.D	2A	.	2dd
.	1d	.	2ff
4E	.	.	.
4F	.	.	2ff
4G	.	.	.
=179	=179	=179	=179
1A	1c	1a]	2.ee
.	.	.	4dd
1r	2r	1r	2cc
.	2d	.	[2dd
=180	=180	=180	=180
0r	2f	2r	4dd]
.	.	.	4cc
.	2f	2a	2a
.	2.e	2a	1b
.	.	2g	.
.	4d	.	.
=181	=181	=181	=181
2r	2c	2e	0a
2d	2d	1f	.
2d	1A	.	.
2c	.	2e	.
=182	=182	=182	=182
2A	2.f	2c	2r
1B-i	.	1d	2dd
.	4e	.	.
.	4f	.	2dd
.	4g	.	.
2A	[2a	2e	2cc
=183	=183	=183	=183
2F	2a]	2f	2a
2G	2g	2d	2b
2.A	2f	2c	2.cc
.	2e	[2cc	.
4B	.	.	4dd
=184	=184	=184	=184
2c	0r	4cc]	2ee
.	.	4b	.
2.d	.	4a	2.ff
.	.	4g	.
.	.	4f	.
4c	.	4e	4ee
2A	.	[2a	2cc
=185	=185	=185	=185
1B	2r	2a]	1dd
.	2d	2g#i	.
[1A	2f	[1a	1cc
.	2f	.	.
=186	=186	=186	=186
1A]	2.e	1a]	2r
.	.	.	2a
.	4d	.	.
2r	2c	1r	2a
2E	2B	.	2g
=187	=187	=187	=187
2F	1A	1r	2a
2F	.	.	1cc
2G	1r	2r	.
2G	.	2d	2b
=188	=188	=188	=188
2F	0r	2f	2a
2D	.	2f	1dd
1A	.	1e	.
.	.	.	[2cc
=189	=189	=189	=189
1r	0r	2d	4cc]
.	.	.	4b
.	.	2c	1a
2r	.	1B	.
2d	.	.	2g#i
=190	=190	=190	=190
2d	1r	1A	0a
2c	.	.	.
2d	2r	1d	.
4D	2d	.	.
4E	.	.	.
=191	=191	=191	=191
4F	2d	0r	2r
4G	.	.	.
2A	2c	.	2a
2D	2d	.	2.a
[2d	2f	.	.
.	.	.	4g
=192	=192	=192	=192
2d]	1e	2r	2a
2c	.	2g	2cc
1d	1r	2g	2b
.	.	2f	2a
=193	=193	=193	=193
2r	2r	2g	2b
2G	2g	2b-i	1dd
2A	2f	1a	.
2A	2e	.	2cc#i
=194	=194	=194	=194
1B	2d	1r	0dd
.	2f	.	.
1G	4e	2r	.
.	4d	.	.
.	[2d	2g	.
=195	=195	=195	=195
1A	2d]	2f	1r
.	2c#i	2e	.
1D	1d	2d	1dd
.	.	2f	.
=196	=196	=196	=196
0r	0r	2e	2cc
.	.	4d	2b
.	.	4e	.
.	.	4f	2a
.	.	4g	.
.	.	[2a	2cc
=197	=197	=197	=197
1r	1.e	2a]	1b
.	.	2g#i	.
[1A	.	[1a	2a
.	2e	.	[2cc
=198	=198	=198	=198
1A]	2c	0a_	2cc]
.	2d	.	2cc
1A	1e	.	2cc
.	.	.	2cc
=199	=199	=199	=199
1F	1f	1a]	2a
.	.	.	2cc
1G	1d	1r	2b
.	.	.	2b
=200	=200	=200	=200
2A	2c	1r	0a
4D	2d	.	.
4E	.	.	.
4F	4A	2r	.
4G	4B	.	.
4A	4c	[2a	.
4B	4d	.	.
=201	=201	=201	=201
2c	2e	2a]	0r
2.d	1f	2a	.
.	.	2f	.
4c	.	.	.
2B	2d	2g	.
=202	=202	=202	=202
1A	1e	2a	2r
.	.	2A	1ee
2G	1r	2B	.
[2A	.	[2c	2ee
=203	=203	=203	=203
4A]	0r	2c]	2cc
4G	.	.	.
2F	.	2A	2dd
1E	.	2B	1ee
.	.	2c	.
=204	=204	=204	=204
0D	2.d	1d	1.ff
.	4d	.	.
.	2d	2r	.
.	2d	[2a	2ff
=205	=205	=205	=205
0r	2c	2a]	2ee
.	2A	2a	2cc
.	2B	2f	1dd
.	2B	2g	.
=206	=206	=206	=206
2r	4A	1a	1cc
.	4B	.	.
1A	4c	.	.
.	4d	.	.
.	2e	1cc	1r
2A	[2f	.	.
=207	=207	=207	=207
2F	4f]	2cc	1r
.	4e	.	.
2G	2d	2b	.
1A	2.c	2a	2r
.	.	2e	2ee
.	8BL	.	.
.	8AJ	.	.
=208	=208	=208	=208
2G	1B	2g	2ee
2E	.	2g	2ee
1F	2r	2a	2cc
.	2A	2a	2dd
=209	=209	=209	=209
1E	2B	1g	1ee
.	2c	.	.
1r	2d	4f	1ff
.	.	4g	.
.	2d	4a	.
.	.	4b	.
=210	=210	=210	=210
2r	1c	2cc	1ee
2A	.	4b	.
.	.	4a	.
2B	2r	2g	2dd
2c	[2g	2e	[2cc
=211	=211	=211	=211
2d	2g]	1f	2cc]
2d	1f	.	2b
1c	.	1g	1cc
.	2e	.	.
=212	=212	=212	=212
2A	2c	1f	0r
2.B-i	2.d	.	.
.	.	2r	.
4A	4c	.	.
4G	4B	2d	.
4F	4A	.	.
=213	=213	=213	=213
2G	1B	2d	2r
2G	.	2d	2dd
[1D	1A	2.f	2dd
.	.	.	2dd
.	.	4g	.
=214	=214	=214	=214
1D]	0r	2a	2ff
.	.	2b	2ff
1r	.	2.cc	1ee
.	.	4b	.
=215	=215	=215	=215
0r	2r	4a	2cc
.	.	4g	.
.	2d	1b	2.dd
.	2f	.	.
.	.	.	4cc
.	2f	[2a	4b
.	.	.	4a
=216	=216	=216	=216
1r	2.e	2a]	1b
.	.	2g#i	.
.	4d	.	.
2r	2c	1a	[1a
2D	2d	.	.
=217	=217	=217	=217
2F	4A	0r	1a]
.	4B	.	.
2F	4c	.	.
.	4d	.	.
2E	4e	.	1r
.	4f	.	.
2E	[2g	.	.
=218	=218	=218	=218
2C	4g]	0r	0r
.	4f	.	.
2.c	4e	.	.
.	4d	.	.
.	2e	.	.
4B	.	.	.
[2A	2c	.	.
=219	=219	=219	=219
2A]	1B	2r	1r
2G	.	2d	.
2F	2A	1f	2r
2D	[2d	.	2a
=220	=220	=220	=220
1A	2d]	1e	1cc
.	2c	.	.
[1D	2d	1d	2b
.	2d	.	[2a
=221	=221	=221	=221
1D]	1f	1r	2a]
.	.	.	2a
1r	1e	1g	2b
.	.	.	2cc
=222	=222	=222	=222
2r	1d	2a	2dd
2d	.	2a	2.ff
1f	1r	2d	.
.	.	.	4ee
.	.	[2a	[2dd
=223	=223	=223	=223
1e	0r	2a]	2dd]
.	.	1g	2cc#i
[1d	.	.	[1dd
.	.	4f	.
.	.	4e	.
=224	=224	=224	=224
1d]	2r	2.f	1dd]
.	2d	.	.
.	.	4g	.
1r	2f	1a	[1cc
.	2f	.	.
=225	=225	=225	=225
2r	2e	2g	2cc]
2D	2d	1f	2b
2F	2c	.	2a
2F	2A	4e	[2cc
.	.	4d	.
=226	=226	=226	=226
2E	1.e	1.g	2cc]
2E	.	.	1b
2C	.	.	.
2D	4d	2f	[2a
.	4c	.	.
=227	=227	=227	=227
1E	1B	1e	2a]
.	.	.	2g#i
1F	1A	1c	[1a
=228	=228	=228	=228
1D	2r	1f	1a]
.	2d	.	.
1A	2c	2e	2r
.	2f	2c	2a
=229	=229	=229	=229
1G	2e	1g	2b
.	2.d	.	2b
1r	.	2r	4a
.	4c	.	4b
.	4A	[2a	4cc
.	4B	.	4dd
=230	=230	=230	=230
0r	2c	2a]	2ee
.	2.d	2a	2.ff
.	.	2f	.
.	4c	.	4ee
.	4B	2g	4dd
.	4A	.	4cc
=231	=231	=231	=231
0r	1G	1b-i	1dd
.	2A	[1a	2cc
.	[2f	.	2a
=232	=232	=232	=232
2r	4f]	2a]	2cc
.	4e	.	.
2G	1e	2g	1b
2B-X	.	2f	.
2B-i	[2d	2d	2g
=233	=233	=233	=233
1A	2d]	2e	1a
.	2c	1a	.
2F	2d	.	2r
2G	2B	2g	2dd
=234	=234	=234	=234
4D	2.A	2f	1ff
4E	.	.	.
4F	.	1a	.
4G	4B	.	.
2A	4c	.	2.ee
.	4d	.	.
2E	[2e	2g	.
.	.	.	4dd
=235	=235	=235	=235
2A	2e]	1a	2cc
2D	2.f	.	2dd
1F	.	2r	4a
.	4g	.	4b
.	2a	2A	4cc
.	.	.	4dd
=236	=236	=236	=236
2E	2g	2c	2ee
4D	2f	2d	1ff
4E	.	.	.
4F	1a	2c	.
4G	.	.	.
4A	.	[2cc	[2ee
4B	.	.	.
=237	=237	=237	=237
2c	2g	2cc]	2ee]
2d	2f	2b	1dd
1A	1e	1a	.
.	.	.	2cc#i
=238	=238	=238	=238
00Dl	00dl	00fl	00ddl
==	==	==	==
*-	*-	*-	*-
!!!system-decoration: [*]
!!!RDF**kern: i = editorial accidental
!!!RDF**kern: l = terminal long
!!!ENC: Benjamin Ory
!!!END: 2024/9/18
!!!EED: Benjamin Ory
!!!EEV: 2024/09/18
!!!YEC: Copyright 2024 Benjamin Ory, All Rights Reserved
!!!ONB: Translated from MusicXML on 2024/09/18